X:16
T: Das mannstolle Maedchen
N: Q0126C
O: Mitteleuropa, Deutschland
N: Rekonstruktion der Balladenmelodie aus einem mehrstimmigen Satz von
N: Melchior Franck. Schlusspause ergaenzt.
R: Ballade, Werbung, Betrug
M: 2/4
L: 1/8
K: G
A | AAdd | c2A
c | BABB | A2z
A | Bdd^c | d2
Bd | cBAG | BAG2 | z3
